X: 1507
T: Gum Blossoms Polka
B: australian traditional tunes wiki
M:2/4
L:1/8
R: Polka
Q: 1/4=100
K:G
V:1 
|:"G"GG G/F/G/A/|"D7"Fcc2|FF F/E/F/G/|"G"DBB2|GG G/F/G/A/|"D7"Fdd2|"A7"^c>B A/G/F/E/|"D7"DFD2:|
|:"G"DB c/B/A/G/|"C"FEE2|"D7"FA d/c/B/A/|"G"GBB2|DB c/B/A/G/|"C"FE Ec|"G"d/B/G/B/ "D7"c/A/F/A/|"G"GBG2:|
% abcbook-tune_id 6342d53abe3e37b8fe8281d9


% abcbook-boost 0
% abcbook-tablature 
% abcbook-transpose 
% abcbook-lastupdated 1665324368434
% abcbook-soundfonts 
% abcbook-repeats 1
% NFF Book 2015

